X:81
T:Jolly Young Waterman THO4.081, The
M:6/8
L:1/8
Z:vmp. Peter Dunk 2010/11.from a transcription by Fynn Titford-Mock 2007
B:Thompson's Compleat Collection of 200 Favourite Country Dances Volume IV.
Q:3/8=100
K:A
c/d/|efd cdB|AGA BGE|EFE EFE|AGc B2 c/d/|\
efd cdB|AGA BGE|EFG ABc|cdB A2:|
|:A|A2d f2 A|A2 c ecA|Adf fed|Ace ecA|\
def fed|cde e2 E|Fdf efd|cdB A2:|
